X:176
T: Az ökör a földet...
M: 4/4
L: 1/4
K: F
f<f e2 | d2 dc | 
gfg2 | c2BG | 
dcB2 | A2 AF | 
GAB2 | G2 GG | 
